common/src/main/resources/files/plugins/bigdata/s3bucketVersioned.svg

<!--
  - The MIT License (MIT)
  -
  - Copyright (c) 2015-2024 Elior "Mallowigi" Boukhobza
  -
  - Permission is hereby granted, free of charge, to any person obtaining a copy
  - of this software and associated documentation files (the "Software"), to deal
  - in the Software without restriction, including without limitation the rights
  - to use, copy, modify, merge, publish, distribute, sublicense, and/or sell
  - copies of the Software, and to permit persons to whom the Software is
  - furnished to do so, subject to the following conditions:
  -
  - The above copyright notice and this permission notice shall be included in all
  - copies or substantial portions of the Software.
  -
  - THE SOFTWARE IS PROVIDED "AS IS", WITHOUT WARRANTY OF ANY KIND, EXPRESS OR
  - IMPLIED, INCLUDING BUT NOT LIMITED TO THE WARRANTIES OF MERCHANTABILITY,
  - FITNESS FOR A PARTICULAR PURPOSE AND NONINFRINGEMENT. IN NO EVENT SHALL THE
  - AUTHORS OR COPYRIGHT HOLDERS BE LIABLE FOR ANY CLAIM, DAMAGES OR OTHER
  - LIABILITY, WHETHER IN AN ACTION OF CONTRACT, TORT OR OTHERWISE, ARISING FROM,
  - OUT OF OR IN CONNECTION WITH THE SOFTWARE OR THE USE OR OTHER DEALINGS IN THE
  - SOFTWARE.
  -->

<svg data-big="true" width="16px" height="16px" viewBox="0 0 16 16" fill="#62B543" xmlns="http://www.w3.org/2000/svg">
  <defs>
    <mask id="Mask">
      <g transform="translate(-2 -2)" fill="white">
        <path fill-rule="evenodd" clip-rule="evenodd"
              d="M12.0089 3.94544C12.0091 3.94545 12.0085 3.94718 12.0067 3.95065C12.0078 3.94718 12.0088 3.94544 12.0089 3.94544ZM11.9704 4C11.9577 3.98555 11.9413 3.96823 11.92 3.94807C11.7894 3.8246 11.5468 3.66734 11.1641 3.51426C10.4043 3.21033 9.28606 3 8 3C6.71394 3 5.59568 3.21033 4.83586 3.51426C4.45317 3.66734 4.21059 3.8246 4.08003 3.94807C4.0587 3.96824 4.04225 3.98555 4.02965 4C4.04225 4.01445 4.0587 4.03176 4.08003 4.05193C4.21059 4.1754 4.45317 4.33266 4.83586 4.48574C5.59568 4.78967 6.71394 5 8 5C9.28606 5 10.4043 4.78967 11.1641 4.48574C11.5468 4.33266 11.7894 4.1754 11.92 4.05193C11.9413 4.03177 11.9577 4.01445 11.9704 4ZM3.99108 3.94544C3.99124 3.94544 3.99216 3.94718 3.99334 3.95065C3.99151 3.94718 3.99092 3.94545 3.99108 3.94544ZM3.99108 4.05455C3.99092 4.05455 3.99151 4.05282 3.99334 4.04935C3.99216 4.05282 3.99124 4.05456 3.99108 4.05455ZM12.0067 4.04935C12.0085 4.05282 12.0091 4.05456 12.0089 4.05456C12.0088 4.05456 12.0078 4.05282 12.0067 4.04935ZM8 6C10.7614 6 13 5.10457 13 4C13 2.89543 10.7614 2 8 2C5.23858 2 3 2.89543 3 4C3 5.10457 5.23858 6 8 6Z"
        />
        <path
          d="M4.0946 4.79601C3.27088 4.40632 3 4 3 4L4 13C4 13 4.5 14 8 14C11.5 14 12 13 12 13L13 4C13 4 12.7291 4.40632 11.9054 4.79601L11.7794 5.93046L11.0476 12.5164C11.0096 12.5374 10.963 12.561 10.9064 12.5862C10.5137 12.7607 9.66477 13 8 13C6.33523 13 5.4863 12.7607 5.09364 12.5862C5.03703 12.561 4.99039 12.5374 4.95242 12.5164L4.22065 5.93046L4.0946 4.79601Z"
        />
        <circle cx="8" cy="8.25" r="1.25"/>
        <path
          d="M8.00001 8.06143C8.49453 8.35741 9.11336 8.61847 9.80444 8.80364C11.6716 9.30394 13.5 9.99996 14 8.99998C14.5 8 13 7.56139 12 7.49998"
        />
      </g>

      <g transform="translate(2 2)" fill="black" stroke="black" stroke-width="3">
        <path fill-rule="evenodd" clip-rule="evenodd"
              d="M12.0089 3.94544C12.0091 3.94545 12.0085 3.94718 12.0067 3.95065C12.0078 3.94718 12.0088 3.94544 12.0089 3.94544ZM11.9704 4C11.9577 3.98555 11.9413 3.96823 11.92 3.94807C11.7894 3.8246 11.5468 3.66734 11.1641 3.51426C10.4043 3.21033 9.28606 3 8 3C6.71394 3 5.59568 3.21033 4.83586 3.51426C4.45317 3.66734 4.21059 3.8246 4.08003 3.94807C4.0587 3.96824 4.04225 3.98555 4.02965 4C4.04225 4.01445 4.0587 4.03176 4.08003 4.05193C4.21059 4.1754 4.45317 4.33266 4.83586 4.48574C5.59568 4.78967 6.71394 5 8 5C9.28606 5 10.4043 4.78967 11.1641 4.48574C11.5468 4.33266 11.7894 4.1754 11.92 4.05193C11.9413 4.03177 11.9577 4.01445 11.9704 4ZM3.99108 3.94544C3.99124 3.94544 3.99216 3.94718 3.99334 3.95065C3.99151 3.94718 3.99092 3.94545 3.99108 3.94544ZM3.99108 4.05455C3.99092 4.05455 3.99151 4.05282 3.99334 4.04935C3.99216 4.05282 3.99124 4.05456 3.99108 4.05455ZM12.0067 4.04935C12.0085 4.05282 12.0091 4.05456 12.0089 4.05456C12.0088 4.05456 12.0078 4.05282 12.0067 4.04935ZM8 6C10.7614 6 13 5.10457 13 4C13 2.89543 10.7614 2 8 2C5.23858 2 3 2.89543 3 4C3 5.10457 5.23858 6 8 6Z"
        />
        <path
          d="M4.0946 4.79601C3.27088 4.40632 3 4 3 4L4 13C4 13 4.5 14 8 14C11.5 14 12 13 12 13L13 4C13 4 12.7291 4.40632 11.9054 4.79601L11.7794 5.93046L11.0476 12.5164C11.0096 12.5374 10.963 12.561 10.9064 12.5862C10.5137 12.7607 9.66477 13 8 13C6.33523 13 5.4863 12.7607 5.09364 12.5862C5.03703 12.561 4.99039 12.5374 4.95242 12.5164L4.22065 5.93046L4.0946 4.79601Z"
        />
        <circle cx="8" cy="8.25" r="1.25"/>
        <path
          d="M8.00001 8.06143C8.49453 8.35741 9.11336 8.61847 9.80444 8.80364C11.6716 9.30394 13.5 9.99996 14 8.99998C14.5 8 13 7.56139 12 7.49998"
        />
      </g>

      <g transform="translate(2 2)" fill="white">
        <path fill-rule="evenodd" clip-rule="evenodd"
              d="M12.0089 3.94544C12.0091 3.94545 12.0085 3.94718 12.0067 3.95065C12.0078 3.94718 12.0088 3.94544 12.0089 3.94544ZM11.9704 4C11.9577 3.98555 11.9413 3.96823 11.92 3.94807C11.7894 3.8246 11.5468 3.66734 11.1641 3.51426C10.4043 3.21033 9.28606 3 8 3C6.71394 3 5.59568 3.21033 4.83586 3.51426C4.45317 3.66734 4.21059 3.8246 4.08003 3.94807C4.0587 3.96824 4.04225 3.98555 4.02965 4C4.04225 4.01445 4.0587 4.03176 4.08003 4.05193C4.21059 4.1754 4.45317 4.33266 4.83586 4.48574C5.59568 4.78967 6.71394 5 8 5C9.28606 5 10.4043 4.78967 11.1641 4.48574C11.5468 4.33266 11.7894 4.1754 11.92 4.05193C11.9413 4.03177 11.9577 4.01445 11.9704 4ZM3.99108 3.94544C3.99124 3.94544 3.99216 3.94718 3.99334 3.95065C3.99151 3.94718 3.99092 3.94545 3.99108 3.94544ZM3.99108 4.05455C3.99092 4.05455 3.99151 4.05282 3.99334 4.04935C3.99216 4.05282 3.99124 4.05456 3.99108 4.05455ZM12.0067 4.04935C12.0085 4.05282 12.0091 4.05456 12.0089 4.05456C12.0088 4.05456 12.0078 4.05282 12.0067 4.04935ZM8 6C10.7614 6 13 5.10457 13 4C13 2.89543 10.7614 2 8 2C5.23858 2 3 2.89543 3 4C3 5.10457 5.23858 6 8 6Z"
        />
        <path
          d="M4.0946 4.79601C3.27088 4.40632 3 4 3 4L4 13C4 13 4.5 14 8 14C11.5 14 12 13 12 13L13 4C13 4 12.7291 4.40632 11.9054 4.79601L11.7794 5.93046L11.0476 12.5164C11.0096 12.5374 10.963 12.561 10.9064 12.5862C10.5137 12.7607 9.66477 13 8 13C6.33523 13 5.4863 12.7607 5.09364 12.5862C5.03703 12.561 4.99039 12.5374 4.95242 12.5164L4.22065 5.93046L4.0946 4.79601Z"
        />
        <circle cx="8" cy="8.25" r="1.25"/>
        <path
          d="M8.00001 8.06143C8.49453 8.35741 9.11336 8.61847 9.80444 8.80364C11.6716 9.30394 13.5 9.99996 14 8.99998C14.5 8 13 7.56139 12 7.49998"
        />
      </g>


    </mask>
  </defs>

  <g mask="url(#Mask)">
    <g transform="translate(-2 -2)">
      <path fill-rule="evenodd" clip-rule="evenodd"
            d="M12.0089 3.94544C12.0091 3.94545 12.0085 3.94718 12.0067 3.95065C12.0078 3.94718 12.0088 3.94544 12.0089 3.94544ZM11.9704 4C11.9577 3.98555 11.9413 3.96823 11.92 3.94807C11.7894 3.8246 11.5468 3.66734 11.1641 3.51426C10.4043 3.21033 9.28606 3 8 3C6.71394 3 5.59568 3.21033 4.83586 3.51426C4.45317 3.66734 4.21059 3.8246 4.08003 3.94807C4.0587 3.96824 4.04225 3.98555 4.02965 4C4.04225 4.01445 4.0587 4.03176 4.08003 4.05193C4.21059 4.1754 4.45317 4.33266 4.83586 4.48574C5.59568 4.78967 6.71394 5 8 5C9.28606 5 10.4043 4.78967 11.1641 4.48574C11.5468 4.33266 11.7894 4.1754 11.92 4.05193C11.9413 4.03177 11.9577 4.01445 11.9704 4ZM3.99108 3.94544C3.99124 3.94544 3.99216 3.94718 3.99334 3.95065C3.99151 3.94718 3.99092 3.94545 3.99108 3.94544ZM3.99108 4.05455C3.99092 4.05455 3.99151 4.05282 3.99334 4.04935C3.99216 4.05282 3.99124 4.05456 3.99108 4.05455ZM12.0067 4.04935C12.0085 4.05282 12.0091 4.05456 12.0089 4.05456C12.0088 4.05456 12.0078 4.05282 12.0067 4.04935ZM8 6C10.7614 6 13 5.10457 13 4C13 2.89543 10.7614 2 8 2C5.23858 2 3 2.89543 3 4C3 5.10457 5.23858 6 8 6Z"
      />
      <path
        d="M4.0946 4.79601C3.27088 4.40632 3 4 3 4L4 13C4 13 4.5 14 8 14C11.5 14 12 13 12 13L13 4C13 4 12.7291 4.40632 11.9054 4.79601L11.7794 5.93046L11.0476 12.5164C11.0096 12.5374 10.963 12.561 10.9064 12.5862C10.5137 12.7607 9.66477 13 8 13C6.33523 13 5.4863 12.7607 5.09364 12.5862C5.03703 12.561 4.99039 12.5374 4.95242 12.5164L4.22065 5.93046L4.0946 4.79601Z"
      />
      <circle cx="8" cy="8.25" r="1.25"/>
      <path
        d="M8.00001 8.06143C8.49453 8.35741 9.11336 8.61847 9.80444 8.80364C11.6716 9.30394 13.5 9.99996 14 8.99998C14.5 8 13 7.56139 12 7.49998"
      />
    </g>

    <g transform="translate(2 2)">
      <path fill-rule="evenodd" clip-rule="evenodd"
            d="M12.0089 3.94544C12.0091 3.94545 12.0085 3.94718 12.0067 3.95065C12.0078 3.94718 12.0088 3.94544 12.0089 3.94544ZM11.9704 4C11.9577 3.98555 11.9413 3.96823 11.92 3.94807C11.7894 3.8246 11.5468 3.66734 11.1641 3.51426C10.4043 3.21033 9.28606 3 8 3C6.71394 3 5.59568 3.21033 4.83586 3.51426C4.45317 3.66734 4.21059 3.8246 4.08003 3.94807C4.0587 3.96824 4.04225 3.98555 4.02965 4C4.04225 4.01445 4.0587 4.03176 4.08003 4.05193C4.21059 4.1754 4.45317 4.33266 4.83586 4.48574C5.59568 4.78967 6.71394 5 8 5C9.28606 5 10.4043 4.78967 11.1641 4.48574C11.5468 4.33266 11.7894 4.1754 11.92 4.05193C11.9413 4.03177 11.9577 4.01445 11.9704 4ZM3.99108 3.94544C3.99124 3.94544 3.99216 3.94718 3.99334 3.95065C3.99151 3.94718 3.99092 3.94545 3.99108 3.94544ZM3.99108 4.05455C3.99092 4.05455 3.99151 4.05282 3.99334 4.04935C3.99216 4.05282 3.99124 4.05456 3.99108 4.05455ZM12.0067 4.04935C12.0085 4.05282 12.0091 4.05456 12.0089 4.05456C12.0088 4.05456 12.0078 4.05282 12.0067 4.04935ZM8 6C10.7614 6 13 5.10457 13 4C13 2.89543 10.7614 2 8 2C5.23858 2 3 2.89543 3 4C3 5.10457 5.23858 6 8 6Z"
      />
      <path
        d="M4.0946 4.79601C3.27088 4.40632 3 4 3 4L4 13C4 13 4.5 14 8 14C11.5 14 12 13 12 13L13 4C13 4 12.7291 4.40632 11.9054 4.79601L11.7794 5.93046L11.0476 12.5164C11.0096 12.5374 10.963 12.561 10.9064 12.5862C10.5137 12.7607 9.66477 13 8 13C6.33523 13 5.4863 12.7607 5.09364 12.5862C5.03703 12.561 4.99039 12.5374 4.95242 12.5164L4.22065 5.93046L4.0946 4.79601Z"
      />
      <circle cx="8" cy="8.25" r="1.25"/>
      <path
        d="M8.00001 8.06143C8.49453 8.35741 9.11336 8.61847 9.80444 8.80364C11.6716 9.30394 13.5 9.99996 14 8.99998C14.5 8 13 7.56139 12 7.49998"
      />
    </g>
  </g>
</svg>

<svg xmlns="http://www.w3.org/2000/svg" width="16" height="16" fill="#62B543" data-big="true"><defs><mask id="a"><g fill="#fff" transform="translate(-2 -2)"><path fill-rule="evenodd" d="m12.009 3.945-.002.006zM11.97 4l-.05-.052c-.13-.123-.373-.28-.756-.434C10.404 3.21 9.286 3 8 3s-2.404.21-3.164.514c-.383.153-.625.31-.756.434L4.03 4l.05.052c.13.123.373.28.756.434C5.596 4.79 6.714 5 8 5s2.404-.21 3.164-.514c.383-.153.625-.31.756-.434zm-7.979-.055.002.006zm0 .11.002-.006zm8.016-.006.002.006zM8 6c2.761 0 5-.895 5-2s-2.239-2-5-2-5 .895-5 2 2.239 2 5 2" clip-rule="evenodd"/><path d="M4.095 4.796C3.27 4.406 3 4 3 4l1 9s.5 1 4 1 4-1 4-1l1-9s-.27.406-1.095.796L11.78 5.93l-.731 6.586a2 2 0 0 1-.142.07C10.514 12.761 9.665 13 8 13s-2.514-.24-2.906-.414a2 2 0 0 1-.142-.07L4.221 5.93z"/><circle cx="8" cy="8.25" r="1.25"/><path d="M8 8.061a7.2 7.2 0 0 0 1.804.743C11.672 9.304 13.5 10 14 9s-1-1.439-2-1.5"/></g><g fill="#000" stroke="#000" stroke-width="3" transform="translate(2 2)"><path fill-rule="evenodd" d="m12.009 3.945-.002.006zM11.97 4l-.05-.052c-.13-.123-.373-.28-.756-.434C10.404 3.21 9.286 3 8 3s-2.404.21-3.164.514c-.383.153-.625.31-.756.434L4.03 4l.05.052c.13.123.373.28.756.434C5.596 4.79 6.714 5 8 5s2.404-.21 3.164-.514c.383-.153.625-.31.756-.434zm-7.979-.055.002.006zm0 .11.002-.006zm8.016-.006.002.006zM8 6c2.761 0 5-.895 5-2s-2.239-2-5-2-5 .895-5 2 2.239 2 5 2Z" clip-rule="evenodd"/><path d="M4.095 4.796C3.27 4.406 3 4 3 4l1 9s.5 1 4 1 4-1 4-1l1-9s-.27.406-1.095.796L11.78 5.93l-.731 6.586a2 2 0 0 1-.142.07C10.514 12.761 9.665 13 8 13s-2.514-.24-2.906-.414a2 2 0 0 1-.142-.07L4.221 5.93z"/><circle cx="8" cy="8.25" r="1.25"/><path d="M8 8.061a7.2 7.2 0 0 0 1.804.743C11.672 9.304 13.5 10 14 9s-1-1.439-2-1.5"/></g><g fill="#fff" transform="translate(2 2)"><path fill-rule="evenodd" d="m12.009 3.945-.002.006zM11.97 4l-.05-.052c-.13-.123-.373-.28-.756-.434C10.404 3.21 9.286 3 8 3s-2.404.21-3.164.514c-.383.153-.625.31-.756.434L4.03 4l.05.052c.13.123.373.28.756.434C5.596 4.79 6.714 5 8 5s2.404-.21 3.164-.514c.383-.153.625-.31.756-.434zm-7.979-.055.002.006zm0 .11.002-.006zm8.016-.006.002.006zM8 6c2.761 0 5-.895 5-2s-2.239-2-5-2-5 .895-5 2 2.239 2 5 2" clip-rule="evenodd"/><path d="M4.095 4.796C3.27 4.406 3 4 3 4l1 9s.5 1 4 1 4-1 4-1l1-9s-.27.406-1.095.796L11.78 5.93l-.731 6.586a2 2 0 0 1-.142.07C10.514 12.761 9.665 13 8 13s-2.514-.24-2.906-.414a2 2 0 0 1-.142-.07L4.221 5.93z"/><circle cx="8" cy="8.25" r="1.25"/><path d="M8 8.061a7.2 7.2 0 0 0 1.804.743C11.672 9.304 13.5 10 14 9s-1-1.439-2-1.5"/></g></mask></defs><g mask="url(#a)"><g transform="translate(-2 -2)"><path fill-rule="evenodd" d="m12.009 3.945-.002.006zM11.97 4l-.05-.052c-.13-.123-.373-.28-.756-.434C10.404 3.21 9.286 3 8 3s-2.404.21-3.164.514c-.383.153-.625.31-.756.434L4.03 4l.05.052c.13.123.373.28.756.434C5.596 4.79 6.714 5 8 5s2.404-.21 3.164-.514c.383-.153.625-.31.756-.434zm-7.979-.055.002.006zm0 .11.002-.006zm8.016-.006.002.006zM8 6c2.761 0 5-.895 5-2s-2.239-2-5-2-5 .895-5 2 2.239 2 5 2" clip-rule="evenodd"/><path d="M4.095 4.796C3.27 4.406 3 4 3 4l1 9s.5 1 4 1 4-1 4-1l1-9s-.27.406-1.095.796L11.78 5.93l-.731 6.586a2 2 0 0 1-.142.07C10.514 12.761 9.665 13 8 13s-2.514-.24-2.906-.414a2 2 0 0 1-.142-.07L4.221 5.93z"/><circle cx="8" cy="8.25" r="1.25"/><path d="M8 8.061a7.2 7.2 0 0 0 1.804.743C11.672 9.304 13.5 10 14 9s-1-1.439-2-1.5"/></g><g transform="translate(2 2)"><path fill-rule="evenodd" d="m12.009 3.945-.002.006zM11.97 4l-.05-.052c-.13-.123-.373-.28-.756-.434C10.404 3.21 9.286 3 8 3s-2.404.21-3.164.514c-.383.153-.625.31-.756.434L4.03 4l.05.052c.13.123.373.28.756.434C5.596 4.79 6.714 5 8 5s2.404-.21 3.164-.514c.383-.153.625-.31.756-.434zm-7.979-.055.002.006zm0 .11.002-.006zm8.016-.006.002.006zM8 6c2.761 0 5-.895 5-2s-2.239-2-5-2-5 .895-5 2 2.239 2 5 2" clip-rule="evenodd"/><path d="M4.095 4.796C3.27 4.406 3 4 3 4l1 9s.5 1 4 1 4-1 4-1l1-9s-.27.406-1.095.796L11.78 5.93l-.731 6.586a2 2 0 0 1-.142.07C10.514 12.761 9.665 13 8 13s-2.514-.24-2.906-.414a2 2 0 0 1-.142-.07L4.221 5.93z"/><circle cx="8" cy="8.25" r="1.25"/><path d="M8 8.061a7.2 7.2 0 0 0 1.804.743C11.672 9.304 13.5 10 14 9s-1-1.439-2-1.5"/></g></g></svg>
